X: 1
T: SWALLOW-TAIL -- JIG
B: Ryan's Mammoth Collection of Fiddle Tunes
R: jig
M: 6/8
L: 1/8
Z: Contributed 20010706205500 by John Chambers jmchambers:rcn.net
K: Em
uE/F/ "B MINOR"\
| GEE BEE | GEE BAG | FDD ADD | d^cd AGF \
| GEE BEE | GEE B2^c | d^cd AGF | GEE E2 :|
|: uB \
| Bc^d e2f | e2f edB | Bc^d e2f | edB d3 \
| Bc^d e2f | e2f edB | e^ce AGF | GEE E2 :|
